**kern	**kern	**fb
*part1	*part1	*part1
*staff2	*staff1	*
*I"Piano	*	*
*clefF4	*clefG2	*
*k[f#c#]	*k[f#c#]	*
=1	=1	=1
8dL	8f#L	.
8A	8d	.
8F#	8d	.
8AJ	8f#J	.
4D	4a	.
=	=	=
4r	4f#	.
4F#	4a	.
4D	4r	.
=	=	=
8F#L	8aL	.
8DJ	8f#	.
8AAL	8f#	.
8DJ	8aJ	.
4FF#	4dd	.
=	=	=
4DD	4a	5
4FF#	4dd	6
4AA	4r	.
=	=	=
4r	(4ff#	.
4C#	4g)	6 5
4D	4f#	5 3
=	=	=
.	4qqf#/	5 3
4A	2eT	.
4c#	.	.
4e	4r	.
=	=	=
2G#X	4dd	6 5
.	4cc#	6 4
4G#	4b	6 3
=	=	=
.	8qqb/	5 3
2A	[4cc#	.
.	12cc#L]	.
.	12ee	.
.	12ddJ	.
4AA	12cc#L	.
.	12b	.
.	12aJ	.
=	=	=
*-	*-	*-
!!!system-decoration: {(s1,s2)}
